**kern	**silbe	**kern	**silbe	**harmony	**phrase	**leadinstrument	**rhyme	**harte
*ICvox	*	*ICvox	*	*M4/4	*	*	*	*M4/4
*VRlead	*	*VRharmonize	*	*	*	*	*	*
*Hstimme	*	*Nstimme	*	*	*	*	*	*
*D-:	*	*D-:	*	*D-:	*	*	*	*D-:
*M4/4	*	*M4/4	*	*	*	*	*	*
*clefG2	*	*clefG2	*	*	*	*	*	*
2r	.	1r	.	1r;	.	r	.	N.C.
4A-	Red	.	.	.	.	.	A	.
4c	red	.	.	.	.	.	A	.
=1	=1	=1	=1	=1	=1	=1	=1	=1
*>Letter>A	*>Letter>A	*>Letter>A	*>Letter>A	*>Letter>A	*>Letter>A	*>Letter>A	*>Letter>A	*>Letter>A
*>Label>Chorus	*>Label>Chorus	*>Label>Chorus	*>Label>Chorus	*>Label>Chorus	*>Label>Chorus	*>Label>Chorus	*>Label>Chorus	*>Label>Chorus
2d-	wine	1r	.	2D-M	newline	voice	B	D-:maj
4B-	_	.	.	2G-M	.	voice	.	G-:maj
4r	.	.	.	.	.	.	.	.
=2	=2	=2	=2	=2	=2	=2	=2	=2
2r	.	1r	.	2A-M	.	voice	.	A-:maj/5
8.e-	goes	.	.	2G-M	.	voice	.	G-:maj/2
[16f	to	.	.	.	.	.	.	.
16f]	_	.	.	.	.	.	.	.
8.g-	my	.	.	.	.	.	B	.
=3	=3	=3	=3	=3	=3	=3	=3	=3
8f	head	1r	.	2D-M	newline	voice	A	D-:maj
16d-	_	.	.	.	.	.	.	.
16B-	_	.	.	.	.	.	.	.
8.d-	_	.	.	.	.	.	.	.
[16B-	_	.	.	.	.	.	.	.
8B-]	_	.	.	2G-M	.	voice	.	G-:maj
8r	.	.	.	.	.	.	.	.
4r	.	.	.	.	.	.	.	.
=4	=4	=4	=4	=4	=4	=4	=4	=4
2r	.	1r	.	2A-M	.	voice	.	A-:maj/5
8.e-	Makes	.	.	2G-M	.	voice	.	G-:maj/2
[16f	me	.	.	.	.	.	.	.
8f]	_	.	.	.	.	.	.	.
8g-	for-	.	.	.	.	.	.	.
=5	=5	=5	=5	=5	=5	=5	=5	=5
8.f	-get	1r	.	2D-M	newline	voice	A	D-:maj
[16d-	that	.	.	.	.	.	.	.
16d-]	_	.	.	.	.	.	.	.
16d-	I	.	.	.	.	.	B	.
8r	.	.	.	.	.	.	.	.
8r	.	.	.	2G-M	.	voice	.	G-:maj
8r	.	.	.	.	.	.	.	.
4r	.	.	.	.	.	.	.	.
=6	=6	=6	=6	=6	=6	=6	=6	=6
2r	.	1r	.	2A-M	.	voice	.	A-:maj/5
16B-	still	.	.	2G-M	.	voice	.	G-:maj/2
8A-	_	.	.	.	.	.	.	.
[16A-	need	.	.	.	.	.	.	.
8A-]	_	.	.	.	.	.	.	.
16G-	your	.	.	.	.	.	.	.
[16A-	_	.	.	.	.	.	.	.
=7	=7	=7	=7	=7	=7	=7	=7	=7
16A-]	_	1r	.	1A-M	newline	voice	.	A-:maj
8A-	so	.	.	.	.	.	C	.
16B-	_	.	.	.	.	.	.	.
4A-	_	.	.	.	.	.	.	.
2r	.	.	.	.	.	.	.	.
=8	=8	=8	=8	=8	=8	=8	=8	=8
2r	.	2r	.	2G-M	.	voice	.	G-:maj
4A-	Red	4c	Red	2A-M	.	voice	A	A-:maj
4c	red	4e-	red	.	.	.	A	.
=9	=9	=9	=9	=9	=9	=9	=9	=9
*>Letter>A	*>Letter>A	*>Letter>A	*>Letter>A	*>Letter>A	*>Letter>A	*>Letter>A	*>Letter>A	*>Letter>A
*>Label>Chorus	*>Label>Chorus	*>Label>Chorus	*>Label>Chorus	*>Label>Chorus	*>Label>Chorus	*>Label>Chorus	*>Label>Chorus	*>Label>Chorus
2d-	wine	8.d-	wine	2D-M	newline	voice	B	D-:maj
.	.	16B-	_	.	.	.	.	.
.	.	8.A-	_	.	.	.	.	.
.	.	16F	_	.	.	.	.	.
4B-	_	4G-	_	2G-M	.	voice	.	G-:maj
4r	.	4r	.	.	.	.	.	.
=10	=10	=10	=10	=10	=10	=10	=10	=10
2r	.	2r	.	2A-M	.	voice	.	A-:maj/5
8.e-	It's	8.c	It's	2G-M	.	voice	.	G-:maj/2
[16f	up	[16c	up	.	.	.	.	.
8f]	_	8c]	_	.	.	.	.	.
8g-	to	8d-	to	.	.	.	.	.
=11	=11	=11	=11	=11	=11	=11	=11	=11
8f	you	8.d-	you	2D-M	newline	voice	D	D-:maj
16d-	_	.	.	.	.	.	.	.
16e-	_	[16B-	_	.	.	.	.	.
8.d-	_	8.B-]	_	.	.	.	.	.
[16B-	_	[16G-	_	.	.	.	.	.
4B-]	_	4G-]	_	2G-M	.	voice	.	G-:maj
4r	.	4r	.	.	.	.	.	.
=12	=12	=12	=12	=12	=12	=12	=12	=12
2r	.	2r	.	2A-M	.	voice	.	A-:maj/5
8.e-	All	8.c	All	2G-M	.	voice	.	G-:maj/2
[16f	I	[16c	I	.	.	.	B	.
8f]	_	8c]	_	.	.	.	.	.
8g-	can	8d-	can	.	.	.	.	.
=13	=13	=13	=13	=13	=13	=13	=13	=13
8.f	do	8.d-	do	2D-M	newline	voice	D	D-:maj
8.d-	I've	8.A-	I've	.	.	.	.	.
8d-	done	16A-	done	.	.	.	.	.
.	.	16F	_	.	.	.	.	.
2r	.	2r	.	2G-M	.	voice	.	G-:maj
=14	=14	=14	=14	=14	=14	=14	=14	=14
2r	.	2r	.	2A-M	.	voice	.	A-:maj/5
8.B-	Me-	8.G-	Me-	2G-M	.	voice	.	G-:maj/2
[16A-	-mories	[16F	-mories	.	.	.	.	.
8A-]	_	8F]	_	.	.	.	.	.
8G-	won't	8E-	won't	.	.	.	.	.
=15	=15	=15	=15	=15	=15	=15	=15	=15
8.A-	go	8.F	go	1A-M	newline	voice	C	A-:maj
16B-	_	16G-	_	.	.	.	.	.
[4A-	_	[4F	_	.	.	.	.	.
4A-]	_	4F]	_	.	.	.	.	.
4r	.	4r	.	.	.	.	.	.
=16	=16	=16	=16	=16	=16	=16	=16	=16
4r	.	1r	.	2G-M	.	voice	.	G-:maj
4G-	Mem-	.	.	.	.	.	.	.
8F	-ories	.	.	2A-M	.	voice	.	A-:maj
8r	.	.	.	.	.	.	.	.
8D-	won't	.	.	.	.	.	.	.
8E-	go	.	.	.	.	.	C	.
=17	=17	=17	=17	=17	=17	=17	=17	=17
*>Letter>B2	*>Letter>B2	*>Letter>B2	*>Letter>B2	*>Letter>B2	*>Letter>B2	*>Letter>B2	*>Letter>B2	*>Letter>B2
*>Label>Trans	*>Label>Trans	*>Label>Trans	*>Label>Trans	*>Label>Trans	*>Label>Trans	*>Label>Trans	*>Label>Trans	*>Label>Trans
4D-	_	1r	.	2D-M	newline	synthesizer	.	D-:maj
4r	.	.	.	.	.	.	.	.
2r	.	.	.	2G-M	.	synthesizer	.	G-:maj
=18	=18	=18	=18	=18	=18	=18	=18	=18
2r	.	2.r	.	2A-M	.	synthesizer	.	A-:maj/5
4r	.	.	.	2G-M	.	synthesizer	.	G-:maj/2
8A-	I'd	8A-	I'd	.	.	.	.	.
8d-	have	8A-	have	.	.	.	.	.
=19	=19	=19	=19	=19	=19	=19	=19	=19
*>Letter>C	*>Letter>C	*>Letter>C	*>Letter>C	*>Letter>C	*>Letter>C	*>Letter>C	*>Letter>C	*>Letter>C
*>Label>Verse	*>Label>Verse	*>Label>Verse	*>Label>Verse	*>Label>Verse	*>Label>Verse	*>Label>Verse	*>Label>Verse	*>Label>Verse
2c	sworn	2A-	sworn	1A-M	newline	voice	.	A-:maj
4r	.	4r	.	.	.	.	.	.
8A-	that	8A-	that	.	.	.	.	.
8e-	with	8A-	with	.	.	.	.	.
=20	=20	=20	=20	=20	=20	=20	=20	=20
8.d-	time	2F	time	1D-M	.	voice	B	D-:maj
16B-	_	.	.	.	.	.	.	.
4A-	_	.	.	.	.	.	.	.
2r	.	2r	.	.	.	.	.	.
=21	=21	=21	=21	=21	=21	=21	=21	=21
8.g-	thoughts	8.G-	thoughts	1G-M	newline	voice	.	G-:maj
[16f	of	[16G-	of	.	.	.	.	.
8f]	_	8G-]	_	.	.	.	.	.
[8d-	you	[8G-	you	.	.	.	.	.
8d-]	_	8G-]	_	.	.	.	.	.
16B-	would	16G-	would	.	.	.	.	.
8B-	leave	8G-	leave	.	.	.	.	.
8G-	my	8G-	my	.	.	.	.	.
[16B-	head	[16G-	head	.	.	.	A	.
=22	=22	=22	=22	=22	=22	=22	=22	=22
16B-]	_	16G-]	_	1D-M	.	voice	.	D-:maj
8.A-	_	8.F	_	.	.	.	.	.
4r	.	4r	.	.	.	.	.	.
4r	.	4r	.	.	.	.	.	.
8A-	I	8A-	I	.	.	.	.	.
8d-	was	8A-	was	.	.	.	.	.
=23	=23	=23	=23	=23	=23	=23	=23	=23
8.c	wrong	2A-	wrong	1A-M	newline	voice	.	A-:maj
16B-	_	.	.	.	.	.	.	.
16c	_	.	.	.	.	.	.	.
16B-	_	.	.	.	.	.	.	.
8A-	_	.	.	.	.	.	.	.
4r	.	4r	.	.	.	.	.	.
8A-	Now	8A-	Now	.	.	.	.	.
8e-	I	[8A-	I	.	.	.	.	.
=24	=24	=24	=24	=24	=24	=24	=24	=24
16d-	_	16A-]	_	1D-M	.	voice	.	D-:maj
8.d-	find	[8.F	find	.	.	.	.	.
8A-	_	8F]	_	.	.	.	.	.
8r	.	8r	.	.	.	.	.	.
4r	.	4r	.	.	.	.	.	.
8e-	just	8E-	just	.	.	.	.	.
8f	one	8F	one	.	.	.	.	.
=25	=25	=25	=25	=25	=25	=25	=25	=25
4g-	thing	4G-	thing	1G-M	newline	voice	.	G-:maj
8.f	makes	8.G-	makes	.	.	.	.	.
[16d-	me	[16G-	me	.	.	.	.	.
8d-]	_	8G-]	_	.	.	.	.	.
16r	.	16r	.	.	.	.	.	.
[16f	for-	16G-	for-	.	.	.	.	.
16f]	_	8A-	_	.	.	.	.	.
16e-	_	.	.	.	.	.	.	.
[8e-	-get	[8A-	-get	.	.	.	A	.
=26	=26	=26	=26	=26	=26	=26	=26	=26
4e-]	_	4A-]	_	1D-M	.	voice	.	D-:maj
4r	.	4r	.	.	.	.	.	.
4d-	Red	4f	Red	.	.	.	A	.
4d-	red	4f	red	.	.	.	A	.
=27	=27	=27	=27	=27	=27	=27	=27	=27
*>Letter>A	*>Letter>A	*>Letter>A	*>Letter>A	*>Letter>A	*>Letter>A	*>Letter>A	*>Letter>A	*>Letter>A
*>Label>Chorus	*>Label>Chorus	*>Label>Chorus	*>Label>Chorus	*>Label>Chorus	*>Label>Chorus	*>Label>Chorus	*>Label>Chorus	*>Label>Chorus
8d-	wine	8.f	wine	2D-M	newline	voice	B	D-:maj
16B-	_	.	.	.	.	.	.	.
16d-	_	[16d-	_	.	.	.	.	.
8.B-	_	8.d-]	_	.	.	.	.	.
[16G-	_	[16B-	_	.	.	.	.	.
4G-]	_	4B-]	_	2G-M	.	voice	.	G-:maj
4r	.	4r	.	.	.	.	.	.
=28	=28	=28	=28	=28	=28	=28	=28	=28
2r	.	2r	.	2A-M	.	voice	.	A-:maj/5
8.e-	Stay	8.c	Stay	2G-M	.	voice	.	G-:maj/2
[16f	closer	[16c	closer	.	.	.	.	.
8f]	_	8c]	_	.	.	.	.	.
8g-	to	8c	to	.	.	.	.	.
=29	=29	=29	=29	=29	=29	=29	=29	=29
8f	me	8.d-	me	2D-M	newline	voice	.	D-:maj
16d-	_	.	.	.	.	.	.	.
16e-	_	[16B-	_	.	.	.	.	.
8.d-	_	8.B-]	_	.	.	.	.	.
[16B-	_	[16G-	_	.	.	.	.	.
4B-]	_	4G-]	_	2G-M	.	voice	.	G-:maj
4r	.	4r	.	.	.	.	.	.
=30	=30	=30	=30	=30	=30	=30	=30	=30
2r	.	2r	.	2A-M	.	voice	.	A-:maj/5
8.e-	Don't	8.c	Don't	2G-M	.	voice	.	G-:maj/2
[16f	let	[16c	let	.	.	.	.	.
8f]	_	8c]	_	.	.	.	.	.
8g-	me	8c	me	.	.	.	.	.
=31	=31	=31	=31	=31	=31	=31	=31	=31
8.f	be	8.d-	be	2D-M	newline	voice	.	D-:maj
[16d-	a-	[16A-	a-	.	.	.	.	.
16d-]	_	16A-]	_	.	.	.	.	.
8.d-	-lone	8.A-	-lone	.	.	.	C	.
2r	.	2r	.	2G-M	.	voice	.	G-:maj
=32	=32	=32	=32	=32	=32	=32	=32	=32
4.r	.	2r	.	2A-M	.	voice	.	A-:maj/5
8B-	It's	.	.	.	.	.	.	.
8.B-	tear-	8.G-	tear-	2G-M	.	voice	.	G-:maj/2
[16A-	-ing	[16F	-ing	.	.	.	.	.
8A-]	_	8F]	_	.	.	.	.	.
8G-	a-	8E-	a-	.	.	.	.	.
=33	=33	=33	=33	=33	=33	=33	=33	=33
8.A-	-part	8.F	-part	1A-M	newline	voice	E	A-:maj
16B-	_	16G-	_	.	.	.	.	.
[4A-	_	[4F	_	.	.	.	.	.
4A-]	_	4F]	_	.	.	.	.	.
4r	.	4r	.	.	.	.	.	.
=34	=34	=34	=34	=34	=34	=34	=34	=34
4r	.	1r	.	2G-M	.	voice	.	G-:maj
8.G-	my	.	.	.	.	.	.	.
32F	blue	.	.	.	.	.	D	.
32G-	_	.	.	.	.	.	.	.
8F	blue	.	.	2A-M	.	voice	D	A-:maj
8r	.	.	.	.	.	.	.	.
8r	.	.	.	.	.	.	.	.
8E-	heart	.	.	.	.	.	E	.
=35	=35	=35	=35	=35	=35	=35	=35	=35
*>Letter>B	*>Letter>B	*>Letter>B	*>Letter>B	*>Letter>B	*>Letter>B	*>Letter>B	*>Letter>B	*>Letter>B
*>Label>Trans	*>Label>Trans	*>Label>Trans	*>Label>Trans	*>Label>Trans	*>Label>Trans	*>Label>Trans	*>Label>Trans	*>Label>Trans
4D-	_	1r	.	2D-M	newline	synthesizer	.	D-:maj
4r	.	.	.	.	.	.	.	.
2r	.	.	.	2G-M	.	synthesizer	.	G-:maj
=36	=36	=36	=36	=36	=36	=36	=36	=36
1r	.	1r	.	2A-M	.	synthesizer	.	A-:sus4/5
.	.	.	.	2A-M	.	synthesizer	.	A-:maj
=37	=37	=37	=37	=37	=37	=37	=37	=37
1r	.	1r	.	2D-M	newline	synthesizer	.	D-:maj
.	.	.	.	2G-M	.	synthesizer	.	G-:maj
=38	=38	=38	=38	=38	=38	=38	=38	=38
2r	.	2.r	.	2A-M	.	synthesizer	.	A-:sus4/5
4r	.	.	.	2A-M	.	synthesizer	.	A-:maj
8A-	I'd	8A-	I'd	.	.	.	.	.
8d-	have	8A-	have	.	.	.	.	.
=39	=39	=39	=39	=39	=39	=39	=39	=39
*>Letter>C	*>Letter>C	*>Letter>C	*>Letter>C	*>Letter>C	*>Letter>C	*>Letter>C	*>Letter>C	*>Letter>C
*>Label>Verse	*>Label>Verse	*>Label>Verse	*>Label>Verse	*>Label>Verse	*>Label>Verse	*>Label>Verse	*>Label>Verse	*>Label>Verse
2c	sworn	2A-	sworn	1A-M	newline	voice	.	A-:maj
4r	.	4r	.	.	.	.	.	.
8A-	that	8A-	that	.	.	.	.	.
8e-	with	8A-	with	.	.	.	.	.
=40	=40	=40	=40	=40	=40	=40	=40	=40
8.d-	time	2F	time	1D-M	.	voice	B	D-:maj
16B-	_	.	.	.	.	.	.	.
4A-	_	.	.	.	.	.	.	.
2r	.	2r	.	.	.	.	.	.
=41	=41	=41	=41	=41	=41	=41	=41	=41
8.g-	thoughts	8.G-	thoughts	1G-M	newline	voice	.	G-:maj
[16f	of	[16G-	of	.	.	.	.	.
8f]	_	8G-]	_	.	.	.	.	.
[8d-	you	[8G-	you	.	.	.	.	.
8d-]	_	8G-]	_	.	.	.	.	.
16B-	would	16G-	would	.	.	.	.	.
8B-	leave	8G-	leave	.	.	.	.	.
8G-	my	8G-	my	.	.	.	.	.
[16B-	head	[16G-	head	.	.	.	A	.
=42	=42	=42	=42	=42	=42	=42	=42	=42
16B-]	_	16G-]	_	1D-M	.	voice	.	D-:maj
8.A-	_	8.F	_	.	.	.	.	.
4r	.	4r	.	.	.	.	.	.
4r	.	4r	.	.	.	.	.	.
8A-	I	8A-	I	.	.	.	.	.
8d-	was	8A-	was	.	.	.	.	.
=43	=43	=43	=43	=43	=43	=43	=43	=43
8.c	wrong	2A-	wrong	1A-M	newline	voice	.	A-:maj
16B-	_	.	.	.	.	.	.	.
16c	_	.	.	.	.	.	.	.
16B-	_	.	.	.	.	.	.	.
8A-	_	.	.	.	.	.	.	.
4r	.	4r	.	.	.	.	.	.
8A-	Now	8A-	Now	.	.	.	.	.
8e-	I	[8A-	I	.	.	.	.	.
=44	=44	=44	=44	=44	=44	=44	=44	=44
16d-	_	16A-]	_	1D-M	.	voice	.	D-:maj
8.d-	find	[8.F	find	.	.	.	.	.
8A-	_	8F]	_	.	.	.	.	.
8r	.	8r	.	.	.	.	.	.
8.r	.	4r	.	.	.	.	.	.
16e-	that	.	.	.	.	.	.	.
8e-	just	8E-	just	.	.	.	.	.
8f	one	8F	one	.	.	.	.	.
=45	=45	=45	=45	=45	=45	=45	=45	=45
4g-	thing	4G-	thing	1G-M	newline	voice	.	G-:maj
8.f	makes	8.G-	makes	.	.	.	.	.
[16d-	me	[16G-	me	.	.	.	.	.
8d-]	_	8G-]	_	.	.	.	.	.
16r	.	16r	.	.	.	.	.	.
[16f	for-	16G-	for-	.	.	.	.	.
16f]	_	8A-	_	.	.	.	.	.
16e-	_	.	.	.	.	.	.	.
[8e-	-get	[8A-	-get	.	.	.	A	.
=46	=46	=46	=46	=46	=46	=46	=46	=46
4e-]	_	4A-]	_	1D-M	.	voice	.	D-:maj
4r	.	4r	.	.	.	.	.	.
4d-	Red	4f	Red	.	.	.	A	.
4d-	red	4f	red	.	.	.	A	.
=47	=47	=47	=47	=47	=47	=47	=47	=47
*>Letter>A	*>Letter>A	*>Letter>A	*>Letter>A	*>Letter>A	*>Letter>A	*>Letter>A	*>Letter>A	*>Letter>A
*>Label>Chorus	*>Label>Chorus	*>Label>Chorus	*>Label>Chorus	*>Label>Chorus	*>Label>Chorus	*>Label>Chorus	*>Label>Chorus	*>Label>Chorus
8d-	wine	8.f	wine	2D-M	newline	voice	B	D-:maj
16B-	_	.	.	.	.	.	.	.
16d-	_	[16d-	_	.	.	.	.	.
8.B-	_	8.d-]	_	.	.	.	.	.
[16G-	_	[16B-	_	.	.	.	.	.
4G-]	_	4B-]	_	2G-M	.	voice	.	G-:maj
4r	.	4r	.	.	.	.	.	.
=48	=48	=48	=48	=48	=48	=48	=48	=48
2r	.	2r	.	2A-M	.	voice	.	A-:maj/5
8.e-	Stay	8.c	Stay	2G-M	.	voice	.	G-:maj/2
[16f	closer	[16d-	closer	.	.	.	.	.
8f]	_	8d-]	_	.	.	.	.	.
8g-	to	8d-	to	.	.	.	.	.
=49	=49	=49	=49	=49	=49	=49	=49	=49
8f	me	8.d-	me	2D-M	newline	voice	.	D-:maj
16d-	_	.	.	.	.	.	.	.
16e-	_	[16B-	_	.	.	.	.	.
8.d-	_	8.B-]	_	.	.	.	.	.
[16B-	_	[16G-	_	.	.	.	.	.
4B-]	_	4G-]	_	2G-M	.	voice	.	G-:maj
4r	.	4r	.	.	.	.	.	.
=50	=50	=50	=50	=50	=50	=50	=50	=50
2r	.	2r	.	2A-M	.	voice	.	A-:maj/5
8.e-	Don't	8.c	Don't	2G-M	.	voice	.	G-:maj/2
[16f	let	[16c	let	.	.	.	.	.
8f]	_	8c]	_	.	.	.	.	.
16g-	me	8B-	me	.	.	.	.	.
16a-	_	.	.	.	.	.	.	.
=51	=51	=51	=51	=51	=51	=51	=51	=51
8.f	be	8.d-	be	2D-M	newline	voice	.	D-:maj
[16d-	a-	[16A-	a-	.	.	.	.	.
16d-]	_	16A-]	_	.	.	.	.	.
8.d-	-lone	8.A-	-lone	.	.	.	C	.
2r	.	2r	.	2G-M	.	voice	.	G-:maj
=52	=52	=52	=52	=52	=52	=52	=52	=52
4.r	.	4.r	.	2A-M	.	voice	.	A-:maj/5
8B-	It's	8G-	It's	.	.	.	.	.
8.B-	tear-	8.G-	tear-	2G-M	.	voice	.	G-:maj/2
[16A-	-ing	[16F	-ing	.	.	.	.	.
8A-]	_	8F]	_	.	.	.	.	.
8G-	a-	8E-	a-	.	.	.	.	.
=53	=53	=53	=53	=53	=53	=53	=53	=53
8.A-	-part	8.F	-part	1A-M	newline	voice	E	A-:maj
16B-	_	16G-	_	.	.	.	.	.
[4A-	_	[4F	_	.	.	.	.	.
8A-]	_	8F]	_	.	.	.	.	.
8r	.	8r	.	.	.	.	.	.
4r	.	4r	.	.	.	.	.	.
=54	=54	=54	=54	=54	=54	=54	=54	=54
4r	.	1r	.	2G-M	.	voice	.	G-:maj
8.g-	my	.	.	.	.	.	.	.
32f	blue	.	.	.	.	.	D	.
32g-	_	.	.	.	.	.	.	.
8f	_	.	.	2A-M	.	voice	.	A-:maj
16r	.	.	.	.	.	.	.	.
8.d-	blue	.	.	.	.	.	D	.
8e-	heart	.	.	.	.	.	E	.
=55	=55	=55	=55	=55	=55	=55	=55	=55
*>Letter>B2	*>Letter>B2	*>Letter>B2	*>Letter>B2	*>Letter>B2	*>Letter>B2	*>Letter>B2	*>Letter>B2	*>Letter>B2
*>Label>Trans	*>Label>Trans	*>Label>Trans	*>Label>Trans	*>Label>Trans	*>Label>Trans	*>Label>Trans	*>Label>Trans	*>Label>Trans
4d-	_	1r	.	2D-M	newline	synthesizer	.	D-:maj
4r	.	.	.	.	.	.	.	.
2r	.	.	.	2G-M	.	synthesizer	.	G-:maj
=56	=56	=56	=56	=56	=56	=56	=56	=56
1r	.	1r	.	2A-M	.	synthesizer	.	A-:sus4/5
.	.	.	.	2A-M	.	synthesizer	.	A-:maj
=57	=57	=57	=57	=57	=57	=57	=57	=57
1r	.	1r	.	2D-M	newline	voice	.	D-:maj
.	.	.	.	2G-M	.	voice	.	G-:maj
=58	=58	=58	=58	=58	=58	=58	=58	=58
2r	.	2r	.	2A-M	.	voice	.	A-:sus4/5
4A-	Red	4c	Red	2A-M	.	voice	A	A-:maj
4c	red	4e-	red	.	.	.	A	.
=59	=59	=59	=59	=59	=59	=59	=59	=59
*>Letter>A	*>Letter>A	*>Letter>A	*>Letter>A	*>Letter>A	*>Letter>A	*>Letter>A	*>Letter>A	*>Letter>A
*>Label>Chorus	*>Label>Chorus	*>Label>Chorus	*>Label>Chorus	*>Label>Chorus	*>Label>Chorus	*>Label>Chorus	*>Label>Chorus	*>Label>Chorus
2d-	wine	8.d-	wine	2D-M	newline	voice	B	D-:maj
.	.	16B-	_	.	.	.	.	.
.	.	8.A-	_	.	.	.	.	.
.	.	16F	_	.	.	.	.	.
4B-	_	4G-	_	2G-M	.	voice	.	G-:maj
4r	.	4r	.	.	.	.	.	.
=60	=60	=60	=60	=60	=60	=60	=60	=60
2r	.	2r	.	2A-M	.	voice	.	A-:maj/5
8.e-	Stay	8.c	Stay	2G-M	.	voice	.	G-:maj/2
[16f	closer	[16c	closer	.	.	.	.	.
8f]	_	8c]	_	.	.	.	.	.
8g-	to	8c	to	.	.	.	.	.
=61	=61	=61	=61	=61	=61	=61	=61	=61
8f	me	8.d-	me	2D-M	newline	voice	.	D-:maj
16d-	_	.	.	.	.	.	.	.
16e-	_	[16B-	_	.	.	.	.	.
8.d-	_	8.B-]	_	.	.	.	.	.
[16B-	_	[16G-	_	.	.	.	.	.
4B-]	_	4G-]	_	2G-M	.	voice	.	G-:maj
4r	.	4r	.	.	.	.	.	.
=62	=62	=62	=62	=62	=62	=62	=62	=62
2r	.	2r	.	2A-M	.	voice	.	A-:maj/5
8.e-	Don't	8.c	Don't	2G-M	.	voice	.	G-:maj/2
[16f	let	[16c	let	.	.	.	.	.
8f]	_	8c]	_	.	.	.	.	.
8g-	me	8d-	me	.	.	.	.	.
=63	=63	=63	=63	=63	=63	=63	=63	=63
8.f	be	8.d-	be	2D-M	newline	voice	.	D-:maj
[16d-	a-	[16A-	a-	.	.	.	.	.
16d-]	_	16A-]	_	.	.	.	.	.
8.d-	-lone	8.A-	-lone	.	.	.	C	.
2r	.	2r	.	2G-M	.	voice	.	G-:maj
=64	=64	=64	=64	=64	=64	=64	=64	=64
4.r	.	4.r	.	2A-M	.	voice	.	A-:maj/5
8B-	It's	8G-	It's	.	.	.	.	.
8.B-	tear-	8.G-	tear-	2G-M	.	voice	.	G-:maj/2
[16A-	-ing	[16F	-ing	.	.	.	.	.
8A-]	_	8F]	_	.	.	.	.	.
8G-	a-	8E-	a-	.	.	.	.	.
=65	=65	=65	=65	=65	=65	=65	=65	=65
8.A-	-part	8.F	-part	1A-M	newline	voice	E	A-:maj
16B-	_	16G-	_	.	.	.	.	.
[4A-	_	[4F	_	.	.	.	.	.
4A-]	_	4F]	_	.	.	.	.	.
4r	.	4r	.	.	.	.	.	.
=66	=66	=66	=66	=66	=66	=66	=66	=66
4r	.	1r	.	2G-M	.	voice	.	G-:maj
8.g-	my	.	.	.	.	.	.	.
32f	blue	.	.	.	.	.	D	.
32g-	_	.	.	.	.	.	.	.
8f	_	.	.	2A-M	.	voice	.	A-:maj
16r	.	.	.	.	.	.	.	.
8.d-	blue	.	.	.	.	.	D	.
8e-	heart	.	.	.	.	.	E	.
=67	=67	=67	=67	=67	=67	=67	=67	=67
4d-	_	1r	.	2D-M	newline	voice	.	D-:maj
4r	.	.	.	.	.	.	.	.
2r	.	.	.	2G-M	.	voice	.	G-:maj
*-	*-	*-	*-	*-	*-	*-	*-	*-
!!!BillboardChartDate: 1984/04/07
!!!BillboardPeak: 1
!!!BillboardWeeksOnChart: 40
!!!COC: UB40
!!!EMD: Many of the chords are wrong...
!!!EMD: The original transcribers transcribed the much longer album version of the song. I trimmed it to match the single version. -Nat Condit-Schultz, 2019-10-16
!!!ENC: Nathaniel Condit-Schultz
!!!EST: Awating manual error checking and editing.
!!!OTL: Red Red Wine
!!!RDF**chordsym: original McGill chord annotation + (implied pitch class set, with bass pitch in first position)
!!!RDF**harmony: **recip + pitch class of root + harmonic quality
!!!RDF**leadinstrument: original McGill primary instrumentation annotation
!!!RDF**phrase: newline = linebreak in original McGill transcription
!!!RDF**timestamp: McGill audio timestamp in seconds
!!!RDT: 2017/01/12/
!!!SampleActualRank: 34
!!!SampleID#: 0083
!!!SampleTargetRank: 33
